X: 13327
T: Flaring Pot, The
R: reel
M: 4/4
K: Gmajor
GA|:BABd A2AG-|G2GE GAAG|BABd A2AG-|1 G2EG D2GA:|2 G2EG D3E||
DEEE EDEG|A2dB- BAGE|DEEE GFED|A,2A,B,- B,A,B,D|
DEEE EDEG|ABdA BGEG|c3c cBAG|A3B ADGA|
|:BABd A2AG-|G2GE GAAG|BABd A2AG-|1 G2EG D2GA:|2 G2EG D3E||
DEEE EDEG|A2dB- BAGE|DEEE GFED|A,2A,B,- B,A,B,D|
DEEE EDEG|ABdA BGEG|c3c cBAG|A3B AGAB|
|:d3B BAGB|c3d cBAc|B3B BAGB|A2AB ADFA|
G3B BAGB|Bc2d cBAc|BAGB ADFA|1 G2GF G3B:|2 G2GF G2GA||

